X:1
T:Title
%%score { ( 1 3 ) | ( 2 4 ) }
L:1/8
M:6/8
K:Db
V:1 treble nm="Grand Piano"
V:3 treble 
V:2 bass 
V:4 bass 
V:1
 z3 z2[Q:1/4=100] A | B2 A F2 A | F3 [CE]2 [CA] | D2 [DF] [DB]2 [DF] |[M:5/8] [CA]-[CA]- [CA]3 | %5
[M:1/8] A |[M:3/4] B2 A F2 A | F3 [CE]2 [EA] | [Ec]2 [EB] [=Gd]2 G |[M:5/8] A-A- A3 |[M:1/8] A | %11
[M:3/4] A2- [FA] B2- [FB] | c2- [Gc]2 z G | e3 [GA]3 |[M:5/8] d3 z2 |[M:1/8] [FA] | %16
[M:3/4] [Af]2 [Ge] [Fd]2 c |[M:7/8] B2 A G3 E |[M:3/4] A2 G [CF]2 [CE] |[M:5/8] D-D- D3 |] %20
V:2
 z3 z2 [D,F,D] | [D,G,D]2 [D,F,D] [D,A,D]2 [F,A,D] | [A,D]3 [A,,A,]2 [A,,G,] | %3
 [B,,F,]2 [B,,B,] [B,,F,]2 [B,,F,] |[M:5/8] [A,,G,]-[A,,G,]- [A,,G,]3 |[M:1/8] [D,F,D] | %6
[M:3/4] [D,G,D]2 [D,F,D] [D,A,D]2 [F,A,D] | [A,D]3 [A,,A,]2 [C,A,] | %8
 [E,A,]2 [E,=G,] [E,B,]2 [E,DE] |[M:5/8][K:treble] [A,CE]-[A,CE]- [A,CE]3 |[M:1/8] [A,CG] | %11
[M:3/4][K:bass] [D,A,]2 [A,,A,] [D,A,]2 [A,,A,] | [E,A,]2 [A,,A,][K:treble] [A,CG]2 [A,C] | %13
 G4 z2[K:bass] |[M:5/8] A,2 z z2 |[M:1/8] [D,D] |[M:3/4] [D,D]2 [D,D] [D,A,]2 [F,=A,E] | %17
[M:7/8] [G,B,D]2 [F,B,=D] [E,B,E]3 [G,B,_D] |[M:3/4] [F,A,D]2 [E,B,C] [A,,A,]2 [A,,G,] | %19
[M:5/8] [D,F,]-[D,F,]- [D,F,]3 |] %20
V:3
 x6 | x6 | x6 | x6 |[M:5/8] x5 |[M:1/8] x |[M:3/4] x6 | x6 | x6 |[M:5/8] x5 |[M:1/8] x | %11
[M:3/4] F2 z .F3 | G2 z A3 | z2 D E2 C |[M:5/8] F2 [B,G] [FA]2 |[M:1/8] x |[M:3/4] x6 |[M:7/8] x7 | %18
[M:3/4] x6 |[M:5/8] x5 |] %20
V:4
 x6 | x6 | x6 | x6 |[M:5/8] x5 |[M:1/8] x |[M:3/4] x6 | x6 | x6 |[M:5/8][K:treble] x5 |[M:1/8] x | %11
[M:3/4][K:bass] x6 | x3[K:treble] x3 | [A,C]2 B, C2[K:bass] A, |[M:5/8] D,3 [D,A,]2 |[M:1/8] x | %16
[M:3/4] x6 |[M:7/8] x7 |[M:3/4] x6 |[M:5/8] x5 |] %20

